Unicodia/Resources/Scripts/31350.svg

<?xml version="1.0" encoding="UTF-8" standalone="no"?>
<!-- Created with Inkscape (http://www.inkscape.org/) -->

<svg
   width="16"
   height="16"
   viewBox="0 0 16 16"
   version="1.1"
   id="svg5"
   inkscape:version="1.2.2 (732a01da63, 2022-12-09)"
   sodipodi:docname="31350.svg"
   inkscape:export-filename="..\0000.png"
   inkscape:export-xdpi="96"
   inkscape:export-ydpi="96"
   xmlns:inkscape="http://www.inkscape.org/namespaces/inkscape"
   xmlns:sodipodi="http://sodipodi.sourceforge.net/DTD/sodipodi-0.dtd"
   xmlns="http://www.w3.org/2000/svg"
   xmlns:svg="http://www.w3.org/2000/svg">
  <sodipodi:namedview
     id="namedview7"
     pagecolor="#ffffff"
     bordercolor="#666666"
     borderopacity="1.0"
     inkscape:pageshadow="2"
     inkscape:pageopacity="0"
     inkscape:pagecheckerboard="0"
     inkscape:document-units="px"
     showgrid="true"
     width="16mm"
     units="px"
     inkscape:zoom="33.322407"
     inkscape:cx="1.845605"
     inkscape:cy="8.7928822"
     inkscape:window-width="1680"
     inkscape:window-height="998"
     inkscape:window-x="-8"
     inkscape:window-y="-8"
     inkscape:window-maximized="1"
     inkscape:current-layer="layer1"
     showguides="true"
     inkscape:guide-bbox="true"
     inkscape:snap-bbox="true"
     inkscape:bbox-paths="true"
     inkscape:bbox-nodes="true"
     inkscape:snap-global="true"
     inkscape:showpageshadow="2"
     inkscape:deskcolor="#ffffff">
    <inkscape:grid
       type="xygrid"
       id="grid828"
       originx="0"
       originy="0" />
  </sodipodi:namedview>
  <defs
     id="defs2" />
  <g
     inkscape:label="Layer 1"
     inkscape:groupmode="layer"
     id="layer1">
    <rect
       style="opacity:1;fill:#fff0f5;stroke:none;stroke-width:4.4376;stroke-linejoin:bevel;stop-color:#000000;fill-opacity:1"
       id="rect691"
       width="16"
       height="16"
       x="0"
       y="0" />
    <path
       d="m 10.959058,10.755027 q 0.800219,1.077846 1.502452,1.780079 0.832879,0.718562 2.449648,1.698423 0.09799,0.049 0.03266,0.195971 -0.06532,0.130649 -0.228634,0.08165 -0.636908,-0.163312 -1.388132,0.391942 -0.08166,0.049 -0.195972,-0.06533 Q 12.396185,14.184535 10.681432,12.110501 9.3749513,10.346753 8.6563886,8.0930766 7.9541556,6.0843647 7.7908466,2.4098919 6.9416339,2.5405402 3.9040709,2.8181661 V 13.808922 q 1.1758307,-0.636908 3.6254792,-1.845401 0.2449652,-0.114311 0.3102885,0.049 0.032663,0.179638 -0.1796403,0.277624 -2.8742539,1.665762 -4.3930372,3.233537 -0.1306465,0.114312 -0.1959715,-0.049 -0.1306482,-0.359281 -0.4409366,-0.65324 -0.1143166,-0.130648 0,-0.195971 0.4899304,-0.424606 0.4899304,-0.783886 V 3.4060823 q 0,-0.8982046 -0.1143166,-1.6494298 -0.016338,-0.1959714 0.048992,-0.2123026 0.081656,-0.032663 0.1959732,0.1143164 0.1796403,0.2286338 0.6369081,0.7512252 6.1894449,-0.7675563 8.3614679,-1.81274057 0.163309,-0.081655 0.228632,-0.016338 0.571585,0.48993037 0.832881,0.78388757 0.09799,0.1143165 0.04899,0.1796419 -0.04899,0.065323 -0.212304,0.016338 Q 12.608487,1.3973697 11.187693,1.8873 10.403805,2.0996029 8.4277552,2.3119056 8.6400578,5.7414132 9.4402768,7.6521393 10.077185,9.5465342 10.959058,10.755027 Z"
       id="path137"
       style="fill:#5c3566;fill-opacity:1;stroke:#5c3566;stroke-width:0.2;stroke-dasharray:none;stroke-opacity:1" />
  </g>
</svg>

<svg height="16" viewBox="0 0 16 16" width="16" xmlns="http://www.w3.org/2000/svg"><path d="m0 0h16v16h-16z" fill="#fff0f5"/><path d="m10.96 10.76q.8 1.08 1.5 1.78.83.72 2.45 1.7.1.05.03.2-.07.13-.23.08-.64-.16-1.39.39-.08.05-.2-.07-.72-.66-2.44-2.73-1.31-1.76-2.02-4.02-.71-2.01-.87-5.68-.85.13-3.89.41v10.99q1.18-.64 3.63-1.85.24-.11.31.05.03.18-.18.28-2.87 1.67-4.39 3.23-.13.11-.2-.05-.13-.36-.44-.65-.11-.13 0-.2.49-.42.49-.78v-10.43q0-.9-.11-1.65-.02-.2.05-.21.08-.03.2.11.18.23.64.75 6.19-.77 8.36-1.81.16-.08.23-.02.57.49.83.78.1.11.05.18-.05.07-.21.02-.55-.16-1.97.33-.79.21-2.76.42.21 3.43 1.01 5.34.64 1.9 1.52 3.11z" fill="#5c3566" stroke="#5c3566" stroke-width=".2"/></svg>
